!!!COM: Bach, Johann Sebastian
!!!OTL: 46. Vom Himmel hoch, da komm' ich her
!!!ONM: No. 46
!!!OCL: Erk
!!!SCA: BWV 248.9
!!!YOE: Riemenschneider, Albert
!!!OPR: 371 Harmonized Chorales and 69 Chorale Melodies with Figured Bass
!!!OPT: Bach Chorale Harmonizations
!!!ONB: From the end of the "Christmas Oratorio"
**harm	**root	**kern	**kern	**kern	**kern
!	!	!bass	!tenor	!alto	!sprno
*Iorgan	*Iorgan	*Iorgan	*Iorgan	*Iorgan	*Iorgan
*k[f#c#]	*k[f#c#]	*k[f#c#]	*k[f#c#]	*k[f#c#]	*k[f#c#]
*D:	*D:	*D:	*D:	*D:	*D:
*met(c)	*met(c)	*met(c)	*met(c)	*met(c)	*met(c)
*M4/4	*M4/4	*M4/4	*M4/4	*M4/4	*M4/4
*MM60	*MM60	*MM60	*MM60	*MM60	*MM60
I	4DD	4D	4f#	4a	4dd
=1	=1	=1	=1	=1	=1
V	4AA	4.A	4e	8a	4cc#
.	.	.	.	8g#	.
vi7d	4BB	.	4d	4f#	4b
.	.	8G#	.	.	.
V	4AA	8A	4c#	4e	4cc#
.	.	8Gn	.	.	.
Ib	4DD	4F#	8d	8f#	4a
.	.	.	8c#	8e	.
=2	=2	=2	=2	=2	=2
IV	4GG	8G	8B	4d	4b
.	.	8F#	8A	.	.
viib	4CC#	4E	4G	4e	4cc#
I;	4DD;	4D;	4A;	4f#;	4dd;
I	4DD	8D	4A	8f#	4dd
.	.	8E	.	8g	.
=3	=3	=3	=3	=3	=3
Ib	4DD	4F#	4d	8a	4dd
.	.	.	.	8g	.
Ib	4DD	8F#	4d	4f#	4a
.	.	8G	.	.	.
V	4AA	4A	4c#	4e	4a
V7c/IV	8DD	8A	8cn	4d	8f#
IV	8GG	8G	8B	.	8g
=4	=4	=4	=4	=4	=4
Ib	4DD	8F#	4A	4d	4a
.	.	8E	.	.	.
V7b	4AA	8D	4A	4e	4g
.	.	8C#y	.	.	.
I;	4DD;	4D;	4A;	4d;	4f#;
I	4DD	4D	4A	8d	4f#
.	.	.	.	8e	.
=5	=5	=5	=5	=5	=5
!!linebreak: 2
V7b/ii	4BB	4D#	4A	4f#	4b
II	4EE	8E	4G#	4e	4b
.	.	8Dn	.	.	.
Vb	8AA	8C#	8A	8e	8a
viib/V	8GG#	8BB	8d	8g#	8b
V	4AA	4AA	8c#	4a	4cc#
.	.	.	8B	.	.
=6	=6	=6	=6	=6	=6
Ib	8DD	8F#	8A	4.a	8dd
Vb	8AA	8E	8c#	.	8cc#
vii7b	8CC#	8D	8f#	.	4b
V/V	8EE	8E	8e	8g#	.
V;	4AA;	4AA;	4c#;	4e;	4a;
vi	8BB	8B	8d	8f#	4dd
V7/V	8EE	8E	[8B	8e	.
=7	=7	=7	=7	=7	=7
V	8AA	4A	8B]	8e	4cc#
iiib	8FF#	.	8A	[8f#	.
vi7b	8BB	8D	8A	8f#]	4b
iib	8EE	[8Gn	8Gn	8e	.
V7d	8AA	8G]	4A	8c#	4a
Ib	8DD	8F#	.	8d	.
IV	8GG	8G	8G	8B	8b
iii	8FF#	8A	8F#	8c#	8a
=8	=8	=8	=8	=8	=8
IVb	4GG	8B	4D	4.d	8g
.	.	8G	.	.	8f#
V	8AA	8A	8A	.	4e
V7	8AA	8AA	8G	8c#	.
I;	4DD;	4D;	4F#;	4A;	4d;
==	==	==	==	==	==
*-	*-	*-	*-	*-	*-
!!!CDT: 1685/3//-1750/7/28
!!!OCY: Deutschland
!!!AGN: chorale
!!!AST: Baroque
!!!AIN: vox
!!!YOY: 1941
!!!PPP: New York; London
!!!PPR: G. Schirmer
!!!ENC: David Huron
!!!EED: David Huron
!!!YEN: United States of America
!!!YER: 1992
!!!YEC: Copyright 1992 David Huron
!!!YEM: Rights to all derivative electronic formats reserved.
!!!YER: March 20, 1996
!!!AMT: simple quadruple
!!!EEV: 1.1
!!chor2scor: -l 2 -s 0.6 -o %b.pmx
